projects/elements/src/icon/icons/set-prioritiy.svg

<svg width="17" height="16" viewBox="0 0 17 16" fill="none" xmlns="http://www.w3.org/2000/svg">
<path d="M0 9C0 8.44772 0.447715 8 1 8H3C3.55228 8 4 8.44772 4 9V14C4 14.5523 3.55228 15 3 15H1C0.447715 15 0 14.5523 0 14V9Z" fill="#818996"/>
<path d="M6 5C6 4.44772 6.44772 4 7 4H9C9.55228 4 10 4.44772 10 5V14C10 14.5523 9.55228 15 9 15H7C6.44772 15 6 14.5523 6 14V5Z" fill="#818996"/>
<path d="M12 2C12 1.44772 12.4477 1 13 1H15C15.5523 1 16 1.44772 16 2V14C16 14.5523 15.5523 15 15 15H13C12.4477 15 12 14.5523 12 14V2Z" fill="#818996"/>
</svg>

<svg xmlns="http://www.w3.org/2000/svg" width="17" height="16" fill="none"><path fill="currentColor" d="M0 9a1 1 0 0 1 1-1h2a1 1 0 0 1 1 1v5a1 1 0 0 1-1 1H1a1 1 0 0 1-1-1V9ZM6 5a1 1 0 0 1 1-1h2a1 1 0 0 1 1 1v9a1 1 0 0 1-1 1H7a1 1 0 0 1-1-1V5ZM12 2a1 1 0 0 1 1-1h2a1 1 0 0 1 1 1v12a1 1 0 0 1-1 1h-2a1 1 0 0 1-1-1V2Z"/></svg>
